open-wallet-images/icons/address.svg

<?xml version="1.0" encoding="utf-8"?>
<!-- Generator: Adobe Illustrator 22.1.0, SVG Export Plug-In . SVG Version: 6.00 Build 0)  -->
<svg version="1.1" id="Calque_1" xmlns="http://www.w3.org/2000/svg" xmlns:xlink="http://www.w3.org/1999/xlink" x="0px" y="0px"
	 viewBox="0 0 18 20" style="enable-background:new 0 0 18 20;" xml:space="preserve">
<style type="text/css">
	.st0{fill:#B5C0D7;}
</style>
<path class="st0" d="M16,2h-1V0h-2v2H5V0H3v2H2C0.9,2,0,2.9,0,4v14c0,1.1,0.9,2,2,2h14c1.1,0,2-0.9,2-2V4C18,2.9,17.1,2,16,2L16,2z
	 M9,5c1.7,0,3,1.3,3,3s-1.3,3-3,3S6,9.7,6,8S7.3,5,9,5L9,5z M15,17H3v-1c0-2,4-3.1,6-3.1s6,1.1,6,3.1V17L15,17z"/>
</svg>

<svg xmlns="http://www.w3.org/2000/svg" width="18" height="20" viewBox="0 0 18 20">
  <path fill="#fff" d="M16,2 L15,2 L15,0 L13,0 L13,2 L5,2 L5,0 L3,0 L3,2 L2,2 C0.89,2 0,2.9 0,4 L0,18 C0,19.1 0.89,20 2,20 L16,20 C17.1,20 18,19.1 18,18 L18,4 C18,2.9 17.1,2 16,2 L16,2 Z M9,5 C10.66,5 12,6.34 12,8 C12,9.66 10.66,11 9,11 C7.34,11 6,9.66 6,8 C6,6.34 7.34,5 9,5 L9,5 Z M15,17 L3,17 L3,16 C3,14 7,12.9 9,12.9 C11,12.9 15,14 15,16 L15,17 L15,17 Z"/>
</svg>
